X:1
T:Der evangelische Kirchenchor
T:Auf, auf ihr Reichsgenossen
T:Max Reger
T:Text: Johann Rist (1607-1667)
T:Auf, auf ihr Reichsgenossen
T:Nr. 2 aus Der evangelische Kirchenchor, WoO VI/17 
T:CPDL - Creative Commons Attribution Non Commercial 3.0
T:CPDL - Creative Commons Attribution Non Commercial 3.0
C:Max Reger
Z:Johann Rist (1607-1667)
Z:CPDL - Creative Commons Attribution Non Commercial 3.0
%%score [ ( 1 2 ) ( 3 4 ) ]
L:1/8
Q:1/4=100
M:6/4
K:A
V:1 treble nm="Sopran\nAlt"
V:2 treble 
V:3 bass nm="Tenor\nBass"
V:4 bass 
V:1
!f!"^Bewegt"!<(! A2 | A4 e2 (c3!<)! B) A2 | (G4 A2) B4 c2 | e4!>(! c2 B4 B2 | A6- A4!>)! | %5
w: 1.~Auf,|auf, ihr Reichs- * ge-|nos- * sen, eur|Kö- nig kommt her-|an; _|
w: 2.~Auf,|ihr be- trüb- * ten|Her- * zen, der|Kö- nig ist gar|nah. _|
w: 3.~Nun,|Herr, du gibst _ uns|reich- * lich wirst|selbst doch arm und|schwach. _|
!f!!<(! A2 | A4 e2 (c3!<)! B) A2 | (G4 A2) B4 c2 | e4!>(! c2 B4 B2 | A6- A4!>)! |!mf!!<(! c2 | %11
w: em-|pfan- get un- * ver-|dros- * sen den|gro- ßen Wun- der-|mann. _|Ihr|
w: Hin-|weg all' Angst * und|Schmer- * zen, der|Hel- fer ist schon|da. _|Seht,|
w: Du|lie- best un- * ver-|gleich- * lich du|gehst den Sün- dern|nach. _|Drum|
 c4!<)! e2 (e3 d) c2 |!>(! B6-!>)! B4!<(! A2!<)! | c4 B2 e4 B2 |!>(! c6 A4!>)!!<(! c2 | %15
w: Chris- ten, geht * her-|für, _ lasst|uns vor al- len|Din- gen ihm|
w: wie so man- * cher|Ort _ hoch-|tröst- lich ist zu|nen- nen, da|
w: wolln wir all- * in|ein _ die|Stim- men hoch er-|schwin- gen dir|
 e4 d2 (c3!<)! B) A2 |!f! (G4!>(! A2)!>)! B4!<(! c2!<)! |!ff! e4 c2 B4!>(! B2 | A6- A4!>)! |] %19
w: Ho- si- an- * na|sin- * gen mit|hei- li- ger Be-|gier. _|
w: wir ihn fin- * den|kön- * nen im|Nacht- mahl, Tauf und|Wort. _|
w: Ho- si- an- * na|sin- * gen und|e- wig dank- bar|sein. _|
V:2
 E2 | F4 E2 E4 F2 | (^E4 F2) =E4 E2 | E4 F2 F4 G2 | E6- E4 | E2 | F4 E2 E4 F2 | (^E4 F2) =E4 E2 | %8
 E4 F2 F4 G2 | E6- E4 | A2 | A4 c2 B4 ^A2 | F6- F4 F2 | (A3 G) F2 G4 B2 | (A4 G2) F4 E2 | %15
 G4 A2 E4 F2 | (^D4 E2) E4 E2 | E4 F2 F4 G2 | E6- E4 |] %19
V:3
 C2 | C4 B,2 A,4 C2 | C6 B,4 A,2 | (G,3 A,) ^A,2 (B,3 C) D2 | C6- C4 | C2 | C4 B,2 A,4 C2 | %7
 C6 B,4 A,2 | (G,3 A,) ^A,2 (B,3 C) D2 | C6- C4 | E2 | F4 G2 (=G3 F) E2 | D6- D4 D2 | %13
 E4 B,2 B,4 E2 | E6 D4 C2 | B,4 A,2 A,4 C2 | (^B,4 C2) =B,4 A,2 | (G,3 A,) ^A,2 (B,3 C) D2 | %18
 C6- C4 |] %19
V:4
 A,2 | F,4 G,2 A,4 F,2 | (C,4 F,2) G,4 A,2 | C,4 F,2 D,4 E,2 | A,,6- A,,4 | A,2 | F,4 G,2 A,4 F,2 | %7
 (C,4 F,2) G,4 A,2 | C,4 F,2 D,4 E,2 | A,,6- A,,4 | A,2 | F,4 E,2 C,4 F,2 | B,,6- B,,4 D,2 | %13
 C,4 ^D,2 E,4 G,2 | A,6 D,4 A,2 | E,4 F,2 A,4 F,2 | (G,4 C,2) G,,4 A,,2 | C,4 F,2 D,4 E,2 | %18
 [A,,E,]6- [A,,E,]4 |] %19

